docs/public/static/branding/about/illustrations/bureaucracy-light.svg

<svg width="81" height="94" viewBox="0 0 81 94" fill="none" xmlns="http://www.w3.org/2000/svg">
<path d="M38.3065 79.3006C58.358 79.3006 74.6129 63.0457 74.6129 42.9942C74.6129 22.9427 58.358 6.68771 38.3065 6.68771C18.255 6.68771 2 22.9427 2 42.9942C2 63.0457 18.255 79.3006 38.3065 79.3006Z" fill="#E7F2FE" fill-opacity="0.5"/>
<path d="M26.67 36.7247C25.9769 38.4892 21.8809 40.0369 18.8528 38.8476C15.8247 37.6582 14.4327 35.658 15.1246 33.8935C15.8177 32.1289 18.1987 31.6103 21.2267 32.7984C24.2548 33.9878 26.2044 37.9081 25.5113 39.6726" stroke="#C2E0FF" stroke-opacity="0.5" stroke-width="1.41445" stroke-miterlimit="10"/>
<path d="M27.6316 35.1983C26.7051 36.852 22.437 37.8268 19.5987 36.2367C16.7604 34.6466 15.6536 32.4743 16.58 30.8206C17.5065 29.1668 19.937 28.9771 22.7753 30.5671C25.6136 32.1572 27.0104 36.3074 26.0839 37.96" stroke="#C2E0FF" stroke-opacity="0.5" stroke-width="1.41445" stroke-miterlimit="10"/>
<path d="M28.7925 33.8168C27.6491 35.3291 23.2879 35.7134 20.6924 33.752C18.0969 31.7906 17.2966 29.4874 18.4399 27.9763C19.5832 26.4641 22.0161 26.6067 24.6116 28.5692C27.2071 30.5306 28.0263 34.8329 26.883 36.344" stroke="#C2E0FF" stroke-opacity="0.5" stroke-width="1.41445" stroke-miterlimit="10"/>
<path d="M30.132 32.6075C28.7941 33.95 24.42 33.7367 22.1168 31.4406C19.8124 29.1433 19.3327 26.754 20.6717 25.4115C22.0095 24.0689 24.4011 24.5416 26.7055 26.8389C29.0098 29.1362 29.235 33.508 27.8971 34.8505" stroke="#C2E0FF" stroke-opacity="0.5" stroke-width="1.41445" stroke-miterlimit="10"/>
<path d="M31.6219 31.5902C30.1132 32.7383 25.8097 31.9321 23.8401 29.3424C21.8705 26.7528 21.7208 24.32 23.2295 23.1731C24.7383 22.025 27.0427 22.8195 29.0123 25.4091C30.9819 27.9987 30.6106 32.3611 29.1019 33.5092" stroke="#C2E0FF" stroke-opacity="0.5" stroke-width="1.41445" stroke-miterlimit="10"/>
<path d="M33.2369 30.7863C31.5855 31.7175 27.4318 30.3325 25.8335 27.5001C24.2351 24.6665 24.4178 22.236 26.068 21.3048C27.7182 20.3737 29.8941 21.4734 31.4924 24.307C33.0908 27.1406 32.1289 31.4122 30.4776 32.3434" stroke="#C2E0FF" stroke-opacity="0.5" stroke-width="1.41445" stroke-miterlimit="10"/>
<path d="M34.946 30.21C33.1838 30.9077 29.2575 28.97 28.0588 25.9454C26.8612 22.9208 27.3728 20.5375 29.135 19.8397C30.8971 19.1419 32.9021 20.5281 34.0997 23.5526C35.2972 26.5772 33.7625 30.6779 32.0004 31.3757" stroke="#C2E0FF" stroke-opacity="0.5" stroke-width="1.41445" stroke-miterlimit="10"/>
<path d="M36.7181 29.8717C34.8769 30.3232 31.2512 27.8691 30.4757 24.7102C29.7013 21.5501 30.5322 19.2587 32.3734 18.8072C34.2145 18.3558 36.012 20.0024 36.7864 23.1613C37.5609 26.3215 35.4828 30.1746 33.6417 30.6261" stroke="#C2E0FF" stroke-opacity="0.5" stroke-width="1.41445" stroke-miterlimit="10"/>
<path d="M38.5205 29.7774C36.6357 29.9743 33.3766 27.0487 33.0395 23.8132C32.7024 20.5776 33.8375 18.4206 35.7234 18.2237C37.6082 18.0269 39.1652 19.9034 39.5023 23.1389C39.8394 26.3745 37.2557 29.9094 35.3698 30.1063" stroke="#C2E0FF" stroke-opacity="0.5" stroke-width="1.41445" stroke-miterlimit="10"/>
<path d="M40.3183 29.9294C38.4241 29.8681 35.5941 26.5265 35.7002 23.2745C35.8062 20.0224 37.2254 18.041 39.1196 18.1023C41.0138 18.1636 42.3009 20.2346 42.1948 23.4866C42.0887 26.7387 39.0465 29.8882 37.1523 29.8257" stroke="#C2E0FF" stroke-opacity="0.5" stroke-width="1.41445" stroke-miterlimit="10"/>
<path d="M42.0782 30.3255C40.2099 30.0061 37.8619 26.3109 38.41 23.1036C38.9581 19.8963 40.6342 18.1259 42.5025 18.4454C44.3707 18.7648 45.3632 20.9914 44.8163 24.1974C44.2682 27.4047 40.8264 30.1098 38.9581 29.7916" stroke="#C2E0FF" stroke-opacity="0.5" stroke-width="1.41445" stroke-miterlimit="10"/>
<path d="M43.7679 30.9573C41.9609 30.3868 40.1375 26.4051 41.117 23.3039C42.0965 20.2016 43.9977 18.6764 45.8047 19.2468C47.6116 19.8173 48.2929 22.1582 47.3134 25.2606C46.3339 28.3629 42.555 30.5754 40.748 30.0049" stroke="#C2E0FF" stroke-opacity="0.5" stroke-width="1.41445" stroke-miterlimit="10"/>
<path d="M45.356 31.813C43.6434 31.0021 42.3786 26.8094 43.7719 23.8698C45.1651 20.9301 47.2561 19.6771 48.9688 20.4892C50.6814 21.3014 51.0374 23.7118 49.6442 26.6527C48.2509 29.5924 44.2068 31.2697 42.4941 30.4587" stroke="#C2E0FF" stroke-opacity="0.5" stroke-width="1.41445" stroke-miterlimit="10"/>
<path d="M46.8128 32.8762C45.2263 31.8389 44.545 27.5143 46.3248 24.7915C48.1047 22.0687 50.3477 21.1127 51.9343 22.15C53.5208 23.1872 53.5444 25.6248 51.7646 28.3476C49.9847 31.0704 45.7496 32.1808 44.1631 31.1447" stroke="#C2E0FF" stroke-opacity="0.5" stroke-width="1.41445" stroke-miterlimit="10"/>
<path d="M48.1121 34.1292C46.6811 32.8857 46.5951 28.5079 48.7297 26.0527C50.8644 23.5975 53.2159 22.9551 54.6456 24.1986C56.0766 25.4421 55.7678 27.8597 53.6331 30.3149C51.4985 32.7701 47.1514 33.2935 45.7217 32.05" stroke="#C2E0FF" stroke-opacity="0.5" stroke-width="1.41445" stroke-miterlimit="10"/>
<path d="M49.2285 35.5472C47.9802 34.1209 48.4918 29.7715 50.94 27.6298C53.3893 25.4881 55.8057 25.1722 57.0539 26.5996C58.3022 28.0259 57.6668 30.3797 55.2187 32.5214C52.7693 34.6631 48.3916 34.5901 47.1445 33.1638" stroke="#C2E0FF" stroke-opacity="0.5" stroke-width="1.41445" stroke-miterlimit="10"/>
<path d="M50.1404 37.1031C49.0984 35.5201 50.1969 31.2814 52.9139 29.4922C55.6319 27.7041 58.0695 27.7206 59.1115 29.3036C60.1535 30.8866 59.2034 33.132 56.4865 34.9201C53.7684 36.7082 49.4414 36.0399 48.3994 34.4569" stroke="#C2E0FF" stroke-opacity="0.5" stroke-width="1.41445" stroke-miterlimit="10"/>
<path d="M50.8317 38.7697C50.0149 37.0594 51.6804 33.0094 54.6154 31.6079C57.5515 30.2064 59.9643 30.5541 60.78 32.2644C61.5968 33.9747 60.3498 36.0705 57.4148 37.472C54.4786 38.8734 50.2836 37.6217 49.4668 35.9114" stroke="#C2E0FF" stroke-opacity="0.5" stroke-width="1.41445" stroke-miterlimit="10"/>
<path d="M38.3066 6.68771V2C60.9472 2 79.2996 20.3536 79.2996 42.993C79.2996 65.6324 60.946 83.986 38.3066 83.986V91.9976" stroke="#8DCEFF" stroke-width="2.82889" stroke-linecap="round" stroke-linejoin="round"/>
<path d="M38.3065 79.3006C58.358 79.3006 74.6129 63.0457 74.6129 42.9942C74.6129 22.9427 58.358 6.68771 38.3065 6.68771C18.255 6.68771 2 22.9427 2 42.9942C2 63.0457 18.255 79.3006 38.3065 79.3006Z" stroke="#8DCEFF" stroke-width="2.82889" stroke-linecap="round" stroke-linejoin="round"/>
<path fill-rule="evenodd" clip-rule="evenodd" d="M19.2279 40.5472C18.5843 40.2065 17.5942 40.5613 17.5847 41.4454L17.5871 41.4465C17.5765 42.3754 17.7026 43.2417 17.936 44.154C18.121 44.8773 18.5313 45.9836 18.8877 46.9449L18.8877 46.9449L18.8878 46.9451C18.981 47.1962 19.0704 47.4375 19.1512 47.6595C18.6373 46.8886 17.3561 44.0963 17.1109 42.8869C17.0254 42.4668 16.946 41.9643 16.862 41.4328C16.704 40.4329 16.5298 39.3302 16.2681 38.4797C15.7024 36.6433 13.7327 36.8166 13.9779 38.9383C14.0182 39.2872 14.0537 39.6741 14.0908 40.0796L14.0908 40.0796C14.183 41.0849 14.2856 42.2047 14.4989 43.1462C14.8922 44.8793 15.3352 46.3243 15.6229 47.2629L15.6229 47.2629C15.6982 47.5085 15.7628 47.7194 15.8132 47.8917C15.5397 47.5617 14.592 45.5744 14.0981 43.2205C13.9437 42.4845 13.7984 41.7157 13.6576 40.9709L13.6576 40.9709L13.6576 40.9709C13.2902 39.0271 12.9536 37.2464 12.5658 36.6362C11.3188 34.6737 10.0092 36.4477 10.318 38.7626C10.4619 39.843 10.7711 41.4812 11.1071 43.2618L11.1071 43.2619L11.1072 43.262C11.1704 43.5969 11.2345 43.9368 11.2987 44.279C11.56 45.6706 12.1045 47.1663 12.4314 48.0642C12.5661 48.4341 12.6638 48.7026 12.6896 48.8205C12.4409 48.507 11.5922 46.9181 11.1455 45.6156C10.7915 44.5833 10.5964 43.4611 10.4284 42.4942C10.2422 41.4231 10.0892 40.5427 9.78997 40.1865C8.97195 39.2129 8.3885 39.8506 8.17397 41.0823C8.0172 41.9852 8.0502 43.8087 8.33899 44.9485C8.82579 46.8674 9.37742 48.7062 10.3711 50.8125C11.2256 52.6232 12.1531 54.4046 13.1197 55.9283C12.4424 55.7171 11.7347 55.2912 11.0654 54.3758C9.88791 52.7645 8.20944 51.7567 7.62126 52.8929C7.2759 53.5601 8.10453 55.5285 8.97559 56.7473C9.84666 57.9673 11.0124 59.1377 12.6343 60.0665C13.6809 60.6653 14.3843 60.9359 15.1777 61.2412L15.1777 61.2412C15.9422 61.5353 16.7902 61.8616 18.1094 62.5445C18.2036 62.5956 18.3003 62.6462 18.3995 62.6964C19.3758 63.2135 20.3934 63.921 21.1982 64.5216C22.0683 65.4038 22.7146 66.4982 23.1152 67.7387C23.1915 67.9746 23.2736 68.4769 23.3602 69.1875C26.5976 70.9643 30.1846 72.183 33.9921 72.7141C32.617 66.8357 31.3792 61.7268 30.8911 60.3848C30.6786 59.8005 30.508 59.2353 30.3375 58.67C29.7503 56.7242 29.1628 54.7773 26.8612 52.0455C25.8039 50.7909 25.0978 50.3659 24.5024 50.0076C23.7994 49.5845 23.2506 49.2542 22.4599 47.7609C22.2338 47.3338 22.0271 46.9543 21.838 46.607C21.1573 45.357 20.7037 44.5239 20.3901 43.3949C20.3639 43.301 20.3331 43.1805 20.2978 43.0421L20.2978 43.0421L20.2978 43.0421C20.091 42.2323 19.7282 40.8119 19.2279 40.5472Z" fill="url(#paint0_linear_729_1495)"/>
<path fill-rule="evenodd" clip-rule="evenodd" d="M58.6838 37.6429C59.3828 37.3954 60.3918 37.8598 60.3328 38.7143C60.2326 40.1677 58.6897 45.2149 58.6897 45.2149C59.4795 42.6618 60.9858 38.3902 62.0467 35.9361C62.7822 34.2341 64.8296 34.6466 64.4076 36.6634C64.018 38.5266 63.5619 40.1921 63.0949 41.898C62.8046 42.958 62.5102 44.0336 62.2247 45.1819C62.8556 43.6733 63.4274 41.8084 63.9665 40.0505L63.9665 40.0504C64.7053 37.6409 65.3825 35.4322 66.0661 34.6172C67.5241 32.8786 68.5908 34.8659 68.0368 37.0488C67.7271 38.268 67.189 40.0285 66.6346 41.8423L66.6346 41.8423C66.4043 42.5957 66.1712 43.3583 65.9505 44.0951C66.0154 44.1364 66.0826 44.1847 66.1509 44.2413L66.1606 44.2119C67.0834 41.4082 68.1107 38.2871 68.6604 37.7914C70.274 36.3369 70.5428 38.9795 69.8733 41.5762C69.7226 42.1609 69.5746 42.7484 69.4262 43.3373L69.4262 43.3374C68.6705 46.3372 67.9065 49.3699 66.7438 52.2164C66.512 52.7843 66.2198 53.3266 65.8758 53.8341C65.9933 53.7476 66.1093 53.6608 66.2238 53.5752C67.2296 52.8229 68.1139 52.1614 68.8749 52.5523C69.4124 52.8281 69.5645 53.4623 69.5833 53.5448C70.0206 55.4838 66.3714 58.0144 63.579 59.0694C62.4442 59.4981 60.5615 60.0186 58.0488 59.8555C56.6368 61.1567 55.8504 63.163 55.4648 65.0466C55.363 65.544 55.1325 67.2118 54.8311 69.4823C50.7958 72.0015 46.1429 73.6232 41.1514 74.0686C43.3752 67.9648 45.5264 61.8914 45.876 60.2941C46.7249 56.4171 47.3402 55.2546 48.0953 53.8278C48.2755 53.4874 48.4637 53.1319 48.6648 52.7209C49.691 50.626 51.0207 49.6525 52.3072 48.7107C53.6525 47.7259 54.9505 46.7757 55.8043 44.6137C56.5598 42.7019 57.0384 41.4407 57.59 39.4605C57.7633 38.8405 58.0462 37.8692 58.6838 37.6429Z" fill="url(#paint1_linear_729_1495)"/>
<path d="M19.5781 92H57.0338" stroke="#8DCEFF" stroke-width="2.82889" stroke-linecap="round" stroke-linejoin="round"/>
<defs>
<linearGradient id="paint0_linear_729_1495" x1="35.9479" y1="43.982" x2="3.64101" y2="48.6657" gradientUnits="userSpaceOnUse">
<stop stop-color="#007FFF"/>
<stop offset="1" stop-color="#3399FF"/>
</linearGradient>
<linearGradient id="paint1_linear_729_1495" x1="41.1514" y1="46.9947" x2="72.5587" y2="49.1576" gradientUnits="userSpaceOnUse">
<stop stop-color="#004C99"/>
<stop offset="1" stop-color="#0072E6"/>
</linearGradient>
</defs>
</svg>

<svg xmlns="http://www.w3.org/2000/svg" width="81" height="94" fill="none"><path fill="#E7F2FE" fill-opacity=".5" d="M38.306 79.3c20.052 0 36.307-16.254 36.307-36.306 0-20.051-16.255-36.306-36.306-36.306C18.255 6.688 2 22.943 2 42.994c0 20.052 16.255 36.307 36.306 36.307Z"/><path stroke="#C2E0FF" stroke-miterlimit="10" stroke-opacity=".5" stroke-width="1.414" d="M26.67 36.725c-.693 1.764-4.79 3.312-7.817 2.123-3.028-1.19-4.42-3.19-3.728-4.954.693-1.765 3.074-2.284 6.102-1.096 3.028 1.19 4.977 5.11 4.284 6.875"/><path stroke="#C2E0FF" stroke-miterlimit="10" stroke-opacity=".5" stroke-width="1.414" d="M27.632 35.198c-.927 1.654-5.195 2.629-8.033 1.039-2.839-1.59-3.945-3.763-3.019-5.416.927-1.654 3.357-1.844 6.195-.254 2.839 1.59 4.235 5.74 3.309 7.393"/><path stroke="#C2E0FF" stroke-miterlimit="10" stroke-opacity=".5" stroke-width="1.414" d="M28.793 33.817c-1.144 1.512-5.505 1.896-8.1-.065-2.596-1.961-3.396-4.265-2.253-5.776 1.143-1.512 3.576-1.37 6.172.593 2.595 1.962 3.414 6.264 2.271 7.775"/><path stroke="#C2E0FF" stroke-miterlimit="10" stroke-opacity=".5" stroke-width="1.414" d="M30.132 32.608c-1.338 1.342-5.712 1.129-8.015-1.167-2.305-2.298-2.784-4.687-1.445-6.03 1.337-1.342 3.73-.87 6.034 1.428 2.304 2.297 2.529 6.669 1.191 8.011"/><path stroke="#C2E0FF" stroke-miterlimit="10" stroke-opacity=".5" stroke-width="1.414" d="M31.622 31.59c-1.509 1.148-5.812.342-7.782-2.248-1.97-2.59-2.12-5.022-.61-6.169 1.508-1.148 3.813-.353 5.782 2.236 1.97 2.59 1.599 6.952.09 8.1"/><path stroke="#C2E0FF" stroke-miterlimit="10" stroke-opacity=".5" stroke-width="1.414" d="M33.237 30.786c-1.652.931-5.805-.454-7.404-3.286-1.598-2.834-1.415-5.264.235-6.195s3.826.168 5.424 3.002c1.599 2.834.637 7.105-1.014 8.036"/><path stroke="#C2E0FF" stroke-miterlimit="10" stroke-opacity=".5" stroke-width="1.414" d="M34.946 30.21c-1.762.698-5.688-1.24-6.887-4.265-1.198-3.024-.686-5.407 1.076-6.105 1.762-.698 3.767.688 4.965 3.713 1.197 3.024-.337 7.125-2.1 7.823"/><path stroke="#C2E0FF" stroke-miterlimit="10" stroke-opacity=".5" stroke-width="1.414" d="M36.718 29.872c-1.841.451-5.467-2.003-6.242-5.162-.775-3.16.056-5.451 1.897-5.903 1.842-.451 3.639 1.195 4.413 4.354.775 3.16-1.303 7.014-3.144 7.465"/><path stroke="#C2E0FF" stroke-miterlimit="10" stroke-opacity=".5" stroke-width="1.414" d="M38.52 29.777c-1.884.197-5.143-2.728-5.48-5.964-.338-3.235.797-5.392 2.683-5.59 1.885-.196 3.442 1.68 3.78 4.916.336 3.236-2.247 6.77-4.133 6.967"/><path stroke="#C2E0FF" stroke-miterlimit="10" stroke-opacity=".5" stroke-width="1.414" d="M40.318 29.93c-1.894-.062-4.724-3.404-4.618-6.655.106-3.253 1.525-5.234 3.42-5.173 1.894.062 3.18 2.133 3.075 5.385-.106 3.252-3.148 6.401-5.043 6.339"/><path stroke="#C2E0FF" stroke-miterlimit="10" stroke-opacity=".5" stroke-width="1.414" d="M42.078 30.326c-1.868-.32-4.216-4.015-3.668-7.222.548-3.208 2.224-4.978 4.093-4.659 1.868.32 2.86 2.546 2.313 5.752-.548 3.208-3.99 5.913-5.858 5.595"/><path stroke="#C2E0FF" stroke-miterlimit="10" stroke-opacity=".5" stroke-width="1.414" d="M43.768 30.957c-1.807-.57-3.63-4.552-2.651-7.653.98-3.102 2.88-4.628 4.688-4.057 1.807.57 2.488 2.911 1.508 6.014-.98 3.102-4.758 5.314-6.565 4.744"/><path stroke="#C2E0FF" stroke-miterlimit="10" stroke-opacity=".5" stroke-width="1.414" d="M45.356 31.813c-1.713-.81-2.977-5.004-1.584-7.943 1.393-2.94 3.484-4.193 5.197-3.38 1.712.811 2.068 3.222.675 6.163-1.393 2.94-5.437 4.617-7.15 3.806"/><path stroke="#C2E0FF" stroke-miterlimit="10" stroke-opacity=".5" stroke-width="1.414" d="M46.813 32.876c-1.587-1.037-2.268-5.362-.488-8.084 1.78-2.723 4.023-3.68 5.61-2.642 1.586 1.037 1.61 3.475-.17 6.198-1.78 2.722-6.015 3.833-7.602 2.797"/><path stroke="#C2E0FF" stroke-miterlimit="10" stroke-opacity=".5" stroke-width="1.414" d="M48.112 34.13c-1.43-1.244-1.517-5.622.618-8.077 2.134-2.456 4.486-3.098 5.916-1.854 1.43 1.243 1.122 3.66-1.013 6.116-2.135 2.455-6.482 2.979-7.911 1.735"/><path stroke="#C2E0FF" stroke-miterlimit="10" stroke-opacity=".5" stroke-width="1.414" d="M49.228 35.547c-1.248-1.426-.736-5.775 1.712-7.917 2.45-2.142 4.866-2.458 6.114-1.03 1.248 1.426.613 3.78-1.835 5.921-2.45 2.142-6.827 2.07-8.075.643"/><path stroke="#C2E0FF" stroke-miterlimit="10" stroke-opacity=".5" stroke-width="1.414" d="M50.14 37.103c-1.042-1.583.057-5.822 2.774-7.61 2.718-1.789 5.155-1.772 6.197-.19 1.043 1.584.092 3.829-2.624 5.617-2.719 1.788-7.046 1.12-8.088-.463"/><path stroke="#C2E0FF" stroke-miterlimit="10" stroke-opacity=".5" stroke-width="1.414" d="M50.832 38.77c-.817-1.71.848-5.76 3.783-7.162 2.936-1.402 5.35-1.054 6.165.656.817 1.71-.43 3.806-3.365 5.208-2.936 1.401-7.131.15-7.948-1.56"/><path stroke="#8DCEFF" stroke-linecap="round" stroke-linejoin="round" stroke-width="2.829" d="M38.307 6.688V2C60.947 2 79.3 20.354 79.3 42.993c0 22.64-18.354 40.993-40.993 40.993v8.012"/><path stroke="#8DCEFF" stroke-linecap="round" stroke-linejoin="round" stroke-width="2.829" d="M38.306 79.3c20.052 0 36.307-16.254 36.307-36.306 0-20.051-16.255-36.306-36.306-36.306C18.255 6.688 2 22.943 2 42.994c0 20.052 16.255 36.307 36.306 36.307Z"/><path fill="url(#a)" fill-rule="evenodd" d="M19.228 40.547c-.644-.34-1.634.014-1.643.898l.002.002c-.01.928.116 1.795.349 2.707.185.723.595 1.83.952 2.79v.001l.263.715c-.514-.771-1.795-3.564-2.04-4.773-.086-.42-.165-.923-.249-1.454-.158-1-.332-2.103-.594-2.953-.566-1.837-2.535-1.663-2.29.458.04.35.076.736.113 1.142.092 1.005.195 2.125.408 3.066.393 1.733.836 3.178 1.124 4.117.075.245.14.456.19.629-.273-.33-1.221-2.318-1.715-4.672-.154-.736-.3-1.504-.44-2.25-.368-1.943-.704-3.724-1.092-4.334-1.247-1.962-2.557-.188-2.248 2.127.144 1.08.453 2.718.79 4.499l.19 1.017c.262 1.392.806 2.887 1.133 3.785.135.37.233.639.259.757-.25-.314-1.098-1.903-1.544-3.205-.355-1.033-.55-2.155-.718-3.122-.186-1.07-.339-1.951-.638-2.307-.818-.974-1.401-.336-1.616.895-.157.903-.124 2.727.165 3.867.487 1.918 1.038 3.757 2.032 5.864.855 1.81 1.782 3.592 2.749 5.115-.678-.21-1.385-.637-2.055-1.552-1.177-1.611-2.856-2.62-3.444-1.483-.345.667.484 2.636 1.355 3.854a11.397 11.397 0 0 0 3.658 3.32c1.047.598 1.75.869 2.544 1.174a25.793 25.793 0 0 1 3.221 1.455c.977.518 1.994 1.225 2.8 1.826.87.882 1.516 1.976 1.916 3.217.077.236.159.738.245 1.448a30.964 30.964 0 0 0 10.632 3.527c-1.375-5.878-2.613-10.987-3.1-12.33a31.712 31.712 0 0 1-.555-1.714c-.587-1.946-1.174-3.893-3.476-6.625-1.057-1.254-1.763-1.68-2.359-2.037-.703-.424-1.251-.754-2.042-2.247-.226-.427-.433-.807-.622-1.154-.68-1.25-1.134-2.083-1.448-3.212a17.868 17.868 0 0 1-.092-.353c-.207-.81-.57-2.23-1.07-2.495Z" clip-rule="evenodd"/><path fill="url(#b)" fill-rule="evenodd" d="M58.684 37.643c.699-.248 1.708.217 1.649 1.071-.1 1.454-1.643 6.5-1.643 6.5.79-2.552 2.296-6.824 3.357-9.278.735-1.702 2.783-1.29 2.36.727-.389 1.864-.845 3.53-1.312 5.235-.29 1.06-.585 2.136-.87 3.284.63-1.509 1.202-3.374 1.742-5.132.738-2.41 1.415-4.618 2.1-5.433 1.457-1.738 2.524.249 1.97 2.432-.31 1.219-.848 2.98-1.402 4.793-.23.754-.464 1.516-.684 2.253.064.041.132.09.2.146l.01-.03c.922-2.803 1.95-5.924 2.5-6.42 1.613-1.454 1.882 1.189 1.212 3.785-.15.585-.298 1.172-.447 1.761-.755 3-1.52 6.033-2.682 8.88a8.84 8.84 0 0 1-.868 1.617l.348-.259c1.006-.752 1.89-1.414 2.65-1.023.538.276.69.91.71.993.437 1.939-3.213 4.47-6.005 5.524-1.135.43-3.017.95-5.53.786-1.412 1.302-2.199 3.308-2.584 5.192-.102.497-.333 2.165-.634 4.435a30.986 30.986 0 0 1-13.68 4.587c2.224-6.104 4.375-12.178 4.725-13.775.849-3.877 1.464-5.04 2.22-6.466.18-.34.368-.696.569-1.107 1.026-2.095 2.356-3.068 3.642-4.01 1.346-.985 2.643-1.935 3.497-4.097.756-1.912 1.234-3.173 1.786-5.153.173-.62.456-1.592 1.094-1.818Z" clip-rule="evenodd"/><path stroke="#8DCEFF" stroke-linecap="round" stroke-linejoin="round" stroke-width="2.829" d="M19.578 92h37.456"/><defs><linearGradient id="a" x1="35.948" x2="3.641" y1="43.982" y2="48.666" gradientUnits="userSpaceOnUse"><stop stop-color="#007FFF"/><stop offset="1" stop-color="#39F"/></linearGradient><linearGradient id="b" x1="41.151" x2="72.559" y1="46.995" y2="49.158" gradientUnits="userSpaceOnUse"><stop stop-color="#004C99"/><stop offset="1" stop-color="#0072E6"/></linearGradient></defs></svg>
